X: 42759
T: White Leaf, The
R: reel
M: 4/4
K: Amajor
A2 cA eA~A2|AGAc edcA|Bcde fd~d2|fdfg afec|
A2 cA eAcA|AGAc edcA|Bcde fagf|1 edcB A2E2:|2 edcB A2ce||
aA ~A2 cA~A2|a2 ga fece|bf ~f2 fece|bf~f2 cefg|
aA ~A2 cAce|a2 ga fecA|Bcde f2gf|1 edcB A2fg:|2 edcB A2E2||

